X: 31064
T: Paddy Cronin's
R: reel
M: 4/4
K: Gmajor
|:B|dGBG ABcA|dGBG c2 Bc|dG G2 ABcA|dBcA G3:|
|:B|d3e fdec|dggf g3a|bgag fdcA|dBcA G3:|

